X:2824
T: Champions Hornpipe
S:Honeyman's (19th Century Fiddle Tutor) via Florida Album 'Brass Roots' 
D:Brass Roots, Florida
M: 4/4
L: 1/8
R:hornpipe
Q:1/4=140
K:G % 1 sharp
D2|:EF GA Be2B|cB A/2B/2c Be2B|cB Ac BA GB|AG FG E2D2|
    EF GA Be2B|cB A/2B/2c Be2B|cB Ac BA GB|AG FG E2D2:|
|: dd ed BG2z|gg ag ec2z|DE FG AB cd|ed ^cd B4|
   dd ed BG2z|gg ag ec2z|DE FG AB cd|ed ^cd G4:|


